X: 18
T: The Catholic Boys
M: 6/8
L: 1/8
B: "O'Neill's 18"
N: "With spirit" "collected by J. O'Neill"
Z: "Transcribed by Norbert Paap, norbertp@bdu.uva.nl"
K:G
D|D-G.G GFG|D-B.B cBc|ded cBA|BGE F2 GFD|
D-GG GFG|D-B.B cBc|ded cBA|B-GG G2||
d/2e/4f/4|gdB gGg|gdc BAG|F-ff fef|AFA cBA|
G-gg gfe|d-cd/2-e/2 fdc|B/2c/2dB cdcAF|A-GG G2||
